blockchains/ethereum/assets/0xac3E018457B222d93114458476f3E3416Abbe38F/logo.svg

<svg fill="none" height="250" viewBox="0 0 250 250" width="250" xmlns="http://www.w3.org/2000/svg" xmlns:xlink="http://www.w3.org/1999/xlink"><clipPath id="a"><path d="m0 0h250v250h-250z"/></clipPath><g clip-path="url(#a)"><path d="m125 250c-16.872 0-33.241-3.307-48.6577-9.825-14.8874-6.297-28.2491-15.311-39.7322-26.785-11.4743-11.474-20.4879-24.845-26.78508-39.732-6.51767-15.417-9.82502-31.786-9.82502-48.658s3.30735-33.241 9.82502-48.6577c6.29718-14.8874 15.31078-28.2491 26.78508-39.7322 11.4831-11.4743 24.8448-20.4879 39.7322-26.78508 15.4167-6.51767 31.7857-9.82502 48.6577-9.82502s33.241 3.30735 48.658 9.82502c14.887 6.29718 28.249 15.31078 39.732 26.78508 11.474 11.4743 20.488 24.8448 26.785 39.7322 6.518 15.4167 9.825 31.7857 9.825 48.6577s-3.307 33.241-9.825 48.658c-6.297 14.887-15.311 28.249-26.785 39.732-11.474 11.474-24.845 20.488-39.732 26.785-15.417 6.526-31.786 9.825-48.658 9.825z" fill="#fff"/><path d="m125 243.378c65.378 0 118.377-52.999 118.377-118.377 0-65.377-52.999-118.376-118.377-118.376-65.3775 0-118.37646 52.999-118.37646 118.376 0 65.378 52.99896 118.377 118.37646 118.377z" fill="#000"/><g fill="#fff"><path d="m127.91 77.9156c15.814 1.4111 28.258 14.5082 28.646 30.5954l24.263 10.08-12.647-20.6197 26.891-26.8909-16.07-16.0693-23.036 23.0456-28.038-45.7208v45.5797z"/><path d="m156.142 114.5c-2.328 14.006-13.9 24.88-28.232 26.168v16.651l53.394-32.359z"/><path d="m93.9992 114.5-25.1623 10.451 53.3941 32.359v-16.651c-14.332-1.279-25.9034-12.154-28.2318-26.159z"/><path d="m180.704 141.93-52.794 31.997v42.378l21.723-30.613 22.675 22.676 16.069-16.07-25.4-25.4z"/><path d="m122.231 173.927-52.7943-31.997 17.7274 24.968-25.4004 25.4 16.0693 16.07 22.675-22.667 21.723 30.595z"/><path d="m69.322 118.6 24.2627-10.08c.388-16.0874 12.8323-29.1845 28.6463-30.5956v-45.5885l-28.0378 45.7208-23.0455-23.0456-16.0693 16.0781 26.8909 26.8909z"/><path d="m126.182 105.673c-7.788-2.39-7.788-3.713-7.788-4.78 0-1.4818 2.24-3.5279 6.447-3.5279 2.487 0 6.668.6174 6.668 4.7799h7.576c0-7.3905-5.724-12.3559-14.244-12.3559-9.11 0-14.023 5.7239-14.023 11.1039 0 7.355 6.456 9.966 13.088 12.012 7.788 2.39 7.832 3.731 7.832 4.798 0 1.482-2.24 3.528-6.447 3.528-2.496 0-6.668-.617-6.668-4.78h-7.576c0 7.39 5.724 12.356 14.244 12.356 9.111 0 14.023-5.724 14.023-11.104.009-7.364-6.491-9.993-13.132-12.03z"/></g></g></svg>

<svg width="250" height="250" viewBox="0 0 250 250" fill="none" xmlns="http://www.w3.org/2000/svg">
<g clip-path="url(#clip0_50_11121)">
<path d="M125 250C108.128 250 91.759 246.693 76.3423 240.175C61.4549 233.878 48.0932 224.864 36.6101 213.39C25.1358 201.916 16.1222 188.545 9.82502 173.658C3.30735 158.241 0 141.872 0 125C0 108.128 3.30735 91.759 9.82502 76.3423C16.1222 61.4549 25.1358 48.0932 36.6101 36.6101C48.0932 25.1358 61.4549 16.1222 76.3423 9.82502C91.759 3.30735 108.128 0 125 0C141.872 0 158.241 3.30735 173.658 9.82502C188.545 16.1222 201.907 25.1358 213.39 36.6101C224.864 48.0844 233.878 61.4549 240.175 76.3423C246.693 91.759 250 108.128 250 125C250 141.872 246.693 158.241 240.175 173.658C233.878 188.545 224.864 201.907 213.39 213.39C201.916 224.864 188.545 233.878 173.658 240.175C158.241 246.701 141.872 250 125 250Z" fill="white"/>
<path d="M125 243.378C190.378 243.378 243.377 190.379 243.377 125.001C243.377 59.624 190.378 6.625 125 6.625C59.6225 6.625 6.62354 59.624 6.62354 125.001C6.62354 190.379 59.6225 243.378 125 243.378Z" fill="black"/>
<path d="M127.91 77.9156C143.724 79.3267 156.168 92.4238 156.556 108.511L180.819 118.591L168.172 97.9713L195.063 71.0804L178.993 55.0111L155.957 78.0567L127.919 32.3359V77.9156H127.91Z" fill="white"/>
<path d="M156.142 114.5C153.814 128.506 142.242 139.38 127.91 140.668V157.319L181.304 124.96L156.142 114.5Z" fill="white"/>
<path d="M93.9992 114.5L68.8369 124.951L122.231 157.31V140.659C107.899 139.38 96.3276 128.505 93.9992 114.5Z" fill="white"/>
<path d="M180.704 141.93L127.91 173.927V216.305L149.633 185.692L172.308 208.368L188.377 192.298L162.977 166.898L180.704 141.93Z" fill="white"/>
<path d="M122.231 173.927L69.4367 141.93L87.1641 166.898L61.7637 192.298L77.833 208.368L100.508 185.701L122.231 216.296V173.927Z" fill="white"/>
<path d="M69.322 118.6L93.5847 108.52C93.9727 92.4326 106.417 79.3355 122.231 77.9244V32.3359L94.1932 78.0567L71.1477 55.0111L55.0784 71.0892L81.9693 97.9801L69.322 118.6Z" fill="white"/>
<path d="M126.182 105.673C118.394 103.283 118.394 101.96 118.394 100.893C118.394 99.4112 120.634 97.3651 124.841 97.3651C127.328 97.3651 131.509 97.9825 131.509 102.145H139.085C139.085 94.7545 133.361 89.7891 124.841 89.7891C115.731 89.7891 110.818 95.513 110.818 100.893C110.818 108.248 117.274 110.859 123.906 112.905C131.694 115.295 131.738 116.636 131.738 117.703C131.738 119.185 129.498 121.231 125.291 121.231C122.795 121.231 118.623 120.614 118.623 116.451H111.047C111.047 123.841 116.771 128.807 125.291 128.807C134.402 128.807 139.314 123.083 139.314 117.703C139.323 110.339 132.823 107.71 126.182 105.673Z" fill="white"/>
</g>
<defs>
<clipPath id="clip0_50_11121">
<rect width="250" height="250" fill="white"/>
</clipPath>
</defs>
</svg>
